!!!!SEGMENT: pl-wnifc--6435-n--001_damse-jozef--polonez-no-1.krn
!!!cenid: 18xx:3939
!!!COM: Damse, Józef
!!!COM-rismID: pe30008765
!!!CDT: 1789-1852
!!!CNT:
!!!OTL: Polonez [No. 1]
!!!PDT: 1825
!!!AGN:
!!!SMS-siglum: PL-Wnifc
!!!SMS-shelfmark: 6435/n
!!!SMS-shelfwork: 001 W
!!!SMS-variant:
!!!SMS-altvar:
!!!NIFC-rismSourceID: 1001011499
!!!NIFC-rismChildID: 1001011568
!!!NIFC-islandoraID: nifc:212718
!!!URL-pdf-islandora: https://repozytorium.nifc.pl/islandora/object/nifc:212718/datastream/PDF/view
!!!URL-scan: https://polish.musicsources.pl/pl/lokalizacje/galeria/druki-muzyczne/16854 @EN{Scan on Polish Music Sources Website} @PL{Skany w portalu Dziedzictwo Muzyki Polskiej w otwartym dostępie}
!!!IIIF:
!!!ONB-nifc: UWAGA: str. 2-3
!!!AIN: 2 piano
!!!key: C
**kern	**kern	**dynam
*part2	*part1	*part1
*staff2	*staff1	*
*I"Piano	*I"Piano	*
*Ipiano	*Ipiano	*
*ICklav	*ICklav	*
*clefF4	*clefG2	*
*k[]	*k[]	*
*C:	*C:	*
*M3/4	*M3/4	*
=1	=1	=1
16c\LL	16ccc\LL	f
16B\	16bb\	.
16A\	16aa\	.
16G\JJ	16gg\JJ	.
16F#X\LL	16ff#X\LL	.
16G\	16gg\	.
16F#\	16ff#\	.
16G\JJ	16gg\JJ	.
16A\LL	16aa\LL	.
16G\	16gg\	.
16A\	16aa\	.
16G\JJ	16gg\JJ	.
=2	=2	=2
16d\LL	16ddd\LL	.
16B\	16bb\	.
16A\	16aa\	.
16G\JJ	16gg\JJ	.
16F#X\LL	16ff#X\LL	.
16G\	16gg\	.
16F#\	16ff#\	.
16G\JJ	16gg\JJ	.
16A\LL	16aa\LL	.
16G\	16gg\	.
16A\	16aa\	.
16G\JJ	16gg\JJ	.
=3	=3	=3
16e\LL	16eee\LL	.
16d\	16ddd\	.
16c\	16ccc\	.
16B\JJ	16bb\JJ	.
16c\LL	16ccc\LL	.
16B\	16bb\	.
16A\	16aa\	.
16G\JJ	16gg\JJ	.
16Fn\LL	16ffn\LL	.
16E\	16ee\	.
16D\	16dd\	.
16C\JJ	16cc\JJ	.
=4	=4	=4
*tremolo	*	*
8G\L 8B 8d	16g/	.
.	16r	.
8G\ 8B 8d	4gg\	.
8G\ 8B 8d	.	.
8G\J 8B 8d	16dd\LL	.
.	16ff\JJ	.
.	8qff/	.
*Xtremolo	*	*
8G\L 8c 8e-X	16ee-X\LL	.
.	16dd\	.
8G\J 8c 8e-	16ee-\	.
.	16cc\JJ	.
=5	=5	=5
*tremolo	*	*
8GG/L 8BB 8D	16b\	.
.	16r	.
8GG/ 8BB 8D	4g/	.
8GG/ 8BB 8D	.	.
8GG/J 8BB 8D	16d/LL	.
.	16f/JJ	.
.	8qf/	.
*Xtremolo	*	*
8GG/L 8C 8E-X	16e-X/LL	.
.	16d/	.
8GG/J 8C 8E-	16e-/	.
.	16c/JJ	.
!!LO:LB:g=original
=6	=6	=6
8GG\L 8BB 8D	8G</L	.
16GG\L 16D 16G	16B/L 16d 16g	.
16GG\JJ 16D 16G	16B/JJ 16d 16g	.
8GG\L 8D 8G	8B/L 8d 8g	.
8GG\J 8D 8G	8B/J 8d 8g	.
4GG\ 4D 4G	4B/ 4d 4g	.
*clefG2	*	*
!LO:TX:t=[segno]	!LO:TX:t=[segno]	!
=7||	=7||	=7||
*tremolo	*	*
8c/L 8e 8g	4.gg\	p
8c/ 8e 8g	.	.
8c/ 8e 8g	.	.
8c/ 8e 8g	8eee\	.
!	!LO:TUP:a:problem:klamra łukowa	!
8c/ 8e 8g	12bb\L	.
.	12ccc\	.
8c/J 8e 8g	.	.
.	12eee\J	.
=8	=8	=8
8c/L 8e 8g	4.ggT\	.
8c/ 8e 8g	.	.
8c/ 8e 8g	.	.
8c/ 8e 8g	8eee\	.
!	!LO:TUP:a:problem:klamra łukowa	!
8c/ 8e 8g	12bb\L	.
.	12ccc\	.
8c/J 8e 8g	.	.
.	12ddd\J	.
=9	=9	=9
8c/L 8e 8g	8gg\L	.
8c/ 8e 8g	16aa\L	.
.	16bb\JJ	.
.	8qddd/	.
8c/ 8e 8g	16ccc\LL	.
.	16bb\	.
8c/ 8e 8g	16ccc\	.
.	16ddd\JJ	.
8c/ 8e 8g	16eee\LL	.
.	16ddd\	.
8c/J 8e 8g	16ccc\	.
.	16eee\JJ	.
=10	=10	=10
8B/ 8d 8g	8bb\	.
8r	8r	.
*clefF4	*	*
4G\ 4B 4d	4bb\ 4ggg	f
4r	4r	.
*clefG2	*	*
=11	=11	=11
8d/L 8f 8a	4.aa\	.
8d/ 8f 8a	.	.
8d/ 8f 8a	.	.
8d/ 8f 8a	8fff\	.
!	!LO:TUP:a:problem:klamra łukowa	!
8d/ 8f 8a	12ccc#X\L	.
.	12ddd\	.
8d/J 8f 8a	.	.
.	12fff\J	.
=12	=12	=12
8d/L 8f 8a	4.aaT\	.
8d/ 8f 8a	.	.
8d/ 8f 8a	.	.
8d/ 8f 8a	8fff\	.
!	!LO:TUP:a:problem:klamra łukowa	!
8d/ 8f 8a	12ccc#X\L	.
.	12ddd\	.
8d/J 8f 8a	.	.
.	12fff\J	.
=13	=13	=13
8B/L 8d 8f 8g	16aaa\LL	.
.	16ggg\	.
8B/ 8d 8f 8g	16fff\	.
.	16eee\JJ	.
8B/ 8d 8f 8g	16ddd\LL	.
.	16ccc\	.
8B/ 8d 8f 8g	16bb\	.
.	16aa\JJ	.
8B/ 8d 8f 8g	16gg\LL	.
.	16aa\	.
8B/J 8d 8f 8g	16b\	.
.	8qaa/	.
.	16gg\JJ	.
=14	=14	=14
4c/ 4e 4g	4ff\	.
!	!LO:TX:t=P:problem:mixed beam	!
4c/ 4e 4g	16ee\LL	.
.	16e/	.
.	16f/	.
.	16g/JJ	.
4r	16a\LL	.
.	16b\	.
.	16cc\	.
.	16dd\JJ	.
!!LO:LB:g=original
*clefF4	*	*
=15	=15	=15
16C\LL	8ee\L	ff
16G\	.	.
16E\	32gg\LL	.
.	32dd\	.
16G\JJ	32cc\	.
.	32b\JJJ	.
*rep	*	*
16C\LL	8cc\L	.
16G\	.	.
16E\	8b\	.
16G\JJ	.	.
*Xrep	*	*
*rep	*	*
16C\LL	8cc\	.
16G\	.	.
16E\	8cc#X\J	.
16G\JJ	.	.
*Xrep	*	*
=16	=16	=16
!LO:TX:t=P:problem:mixed beam	!	!
16GG/LL	8dd\L	.
16G\	.	.
16D\	32ff\LL	.
.	32ee\	.
16G\JJ	32dd\	.
.	32cc\JJJ	.
*rep	*	*
!LO:TX:t=P:problem:mixed beam	!	!
16GG/LL	8b\L	.
16G\	.	.
16D\	32dd\LL	.
.	32cc\	.
16G\JJ	32b\	.
.	32a\JJJ	.
*Xrep	*	*
*rep	*	*
!LO:TX:t=P:problem:mixed beam	!	!
16GG/LL	8g\L	.
16G\	.	.
16D\	8gg\J	.
16G\JJ	.	.
*Xrep	*	*
=17	=17	=17
16C\LL	8ee\L	.
16G\	.	.
16E\	32gg\LL	.
.	32ff\	.
16G\JJ	32ee\	.
.	32dd\JJJ	.
*rep	*	*
16C\LL	8cc\L	.
16G\	.	.
16E\	8b\	.
16G\JJ	.	.
*Xrep	*	*
*rep	*	*
16C\LL	8cc\	.
16G\	.	.
16E\	8cc#X\J	.
16G\JJ	.	.
*Xrep	*	*
=18	=18	=18
!LO:TX:t=P:problem:mixed beam	!	!
16GG/LL	8dd\L	.
16G\	.	.
16D\	32ff\LL	.
.	32ee\	.
16G\JJ	32dd\	.
.	32cc\JJJ	.
*rep	*	*
!LO:TX:t=P:problem:mixed beam	!	!
16GG/LL	8b\L	.
16G\	.	.
16D\	32dd\LL	.
.	32cc\	.
16G\JJ	32b\	.
.	32a\JJJ	.
*Xrep	*	*
*rep	*	*
!LO:TX:t=P:problem:mixed beam	!	!
16GG/LL	8g\L	.
16G\	.	.
16D\	8gg\J	.
16G\JJ	.	.
*Xrep	*	*
=19	=19	=19
8C/L	16cc\LL	.
.	16ee\	.
*clefG2	*	*
8c/ 8e 8g	16ee\	.
.	16ee\JJ	.
8c/ 8e 8g	16ee\LL	.
.	16ee\	.
8c/J 8e 8g	16ee\	.
.	16ee\JJ	.
*Xtremolo	*	*
8B/L 8d 8e 8g#X	16ee\LL	.
.	16ee\	.
8B/J 8d 8e 8g#	16ee\	.
.	16ee\JJ	.
=20	=20	=20
8A/L 8c 8e 8a	16dd#X\LL	.
.	16ee\	.
8A/ 8c 8e 8a	16dd#\	.
.	16ee\JJ	.
8A/ 8c 8e 8a	16dd#\LL	.
.	16ee\	.
8A/J 8c 8e 8a	16dd#\	.
.	16ee\JJ	.
*clefF4	*	*
8F\L 8A 8d	16gg\LL	.
.	16ff\	.
8F\J 8A 8d	16a\	.
.	16dd#\JJ	.
!!LO:LB:g=original
=21	=21	=21
*tremolo	*	*
8G\L 8c 8e	8cc\L	.
8G\ 8c 8e	16dd\L	.
.	16ee\JJ	.
8G\ 8c 8e	16ff\LL	.
.	16gg\	.
8G\ 8c 8e	16aa\	.
.	16bb\JJ	.
8G\ 8c 8e	16ccc\LL	.
.	16bb\	.
8G\J 8c 8e	16aa\	.
.	16gg\JJ	.
=22	=22	=22
4G\ 4d 4f	16gg\LL	.
.	16ff\	.
.	16dd\	.
.	16b\JJ	.
8r	4dd\	.
8G\ 8d 8f	.	.
4c\ 4e	8cc\	.
.	8r	.
=23:|!|:	=23:|!|:	=23:|!|:
8D/L 8F	8g/	.
8GG/	4ff\	.
8D/ 8F	.	.
8GG/	16ee\LL	.
.	16dd\JJ	.
8D/ 8F	16ee\LL	.
.	16dd\	.
8GG/J	16ee\	.
.	16dd\JJ	.
=24	=24	=24
8E/L 8G	8g/	.
8GG/	4ee\	.
8E/ 8G	.	.
8GG/	16dd\LL	.
.	16cc\JJ	.
8E/ 8G	16dd\LL	.
.	16cc\	.
8GG/J	16dd\	.
.	16cc\JJ	.
=25	=25	=25
8F#X\L 8A 8c	8dd\	.
8D\	4ccc\	.
8F#\ 8A 8c	.	.
8D\	16bb\LL	.
.	16aa\JJ	.
8F#\ 8A 8c	16bb\LL	.
.	16aa\	.
8D\J	16bb\	.
.	16aa\JJ	.
=26	=26	=26
8G\L 8B	16gg\	.
.	16r	.
8G\ 8B 8d	4gg\	.
8G\ 8B 8d	.	.
8G\J 8B 8d	16dd\LL	.
.	16ee\JJ	.
.	8qff/	.
*Xtremolo	*	*
8G\L 8c 8e-X	16ee-X\LL	.
.	16dd\	.
8G\J 8c 8e-	16ee-\	.
.	16cc\JJ	.
!!LO:LB:g=original
=27	=27	=27
8GG/L 8BB 8D	16b\	.
.	16r	.
8GG/ 8BB 8D	4g/	.
8GG/ 8BB 8D	.	.
8GG/J 8BB 8D	16d/LL	.
.	16f/JJ	.
.	8qf/	.
8GG/L 8C 8E-X	16e-X/LL	.
.	16d/	.
8GG/J 8C 8E-	16e-/	.
.	16c/JJ	.
=28	=28	=28
8GG/L 8BB 8D	8B/L	.
16GG/L 16D 16G	16B/L 16d 16g	.
16GG/JJ 16D 16G	16B/JJ 16d 16g	.
8GG/L 8D 8G	8B/L 8d 8g	.
8GG/J 8D 8G	8B/J 8d 8g	.
!LO:TX:a:i:t=Dal Segno	!	!
4GG/ 4D 4G	4B/ 4d 4g	.
!LO:TX:t=[segno]	!LO:TX:t=[segno]	!
!LO:TX:b:t=[segno]	!LO:TX:b:t=[segno]	!
!!LO:PB:g=original
==29	==29	==29
*k[b-e-a-]	*k[b-e-a-]	*
*M3/4	*M3/4	*
*tremolo	*	*
!	!LO:TX:a:i:t=Trio.	!
8c\L 8e-	4.g/	.
8G\	.	.
8c\ 8e-	.	.
8G\	8cc\L	.
8c\ 8e-	8ee-\	.
8G\J	8gg\J	.
=30	=30	=30
8Bn\L 8d	8.ff\L	.
8G\	.	.
.	16dd\Jk	.
8d\ 8f	4bn\	.
8G\	.	.
8B\ 8d	8r	.
8G\J	8g/	.
=31	=31	=31
8c\L 8e-	8cc\L	.
8G\	16dd\L	.
.	16ee-X\JJ	.
8c\ 8e-	16ff\LL	.
.	16gg\	.
8G\	16aa-\	.
.	16bbn\JJ	.
8c\ 8e-	16ccc\LL	.
.	16ddd\	.
8G\J	16eee-\	.
.	16ccc\JJ	.
=32	=32	=32
8Bn\L 8d	16eee-\LL	.
.	16ddd\	.
8G\	16ccc#X\	.
.	16ddd\JJ	.
8B\ 8d	4eee-\	.
8G\	.	.
8B\ 8d	4r	.
8G\J	.	.
=33	=33	=33
4C\ 4c	16ccc\LL	.
.	16gg\	.
.	16ff#X\	.
.	16gg\JJ	.
8r	16ccc\LL	.
.	16gg\	.
*Xtremolo	*	*
8C\L 8c	16eee-\	.
.	16gg\JJ	.
8E-\ 8e-	16ccc\LL	.
.	16gg\	.
8C\J 8c	16eee-\	.
.	16gg\JJ	.
!!LO:LB:g=original
=34	=34	=34
4G\ 4g	16ddd\LL	.
.	16gg\	.
.	16ff#X\	.
.	16gg\JJ	.
8r	16bbn\LL	.
.	16gg\	.
8GG/L 8G	16ddd\	.
.	16gg\JJ	.
8BBn/ 8Bn	16bb\LL	.
.	16gg\	.
8GG/J 8G	16ddd\	.
.	16gg\JJ	.
=35	=35	=35
4C\ 4c	16ccc\LL	.
.	16gg\	.
.	16ff#X\	.
.	16gg\JJ	.
8r	16ccc\LL	.
.	16gg\	.
8C\L 8c	16eee-\	.
.	16gg\JJ	.
8E-\ 8e-	16ccc\LL	.
.	16gg\	.
8C\J 8c	16eee-\	.
.	16gg\JJ	.
=36	=36	=36
4G\ 4g	16ddd\LL	.
.	16gg\	.
.	16ff#X\	.
.	16gg\JJ	.
8r	16bbn\LL	.
.	16gg\	.
8GG/L 8G	16ddd\	.
.	16gg\JJ	.
8BBn/ 8Bn	16bb\LL	.
.	16gg\	.
8GG/J 8G	16ddd\	.
.	16gg\JJ	.
=37	=37	=37
16C\LL	16ccc\	.
16G\	16r	.
16E-\	8.eee-\L	.
16G\JJ	.	.
*rep	*	*
16C\LL	.	.
16G\	16ddd\L	.
16E-\	16ccc\	.
16G\JJ	16bb-\JJ	.
*Xrep	*	*
*rep	*	*
16C\LL	16aa-X\LL	.
16G\	16gg\	.
16E-\	16ff\	.
16G\JJ	16ee-\JJ	.
*Xrep	*	*
!!LO:LB:g=original
=38	=38	=38
16BBn\LL	16dd\	.
16G\	16r	.
16D\	8.fff\L	.
16G\JJ	.	.
*rep	*	*
16BB\LL	.	.
16G\	16eee-\L	.
16D\	16ddd\	.
16G\JJ	16ccc\JJ	.
*Xrep	*	*
*rep	*	*
16BB\LL	16bbn\LL	.
16G\	16aa-X\	.
16D\	16gg\	.
16G\JJ	16ff\JJ	.
*Xrep	*	*
=39	=39	=39
16C\LL	16ee-\	.
16G\	16r	.
16E-\	8.ggg\L	.
16G\JJ	.	.
*rep	*	*
16C\LL	.	.
16G\	16fff\L	.
16E-\	16eee-\	.
16G\JJ	16ddd\JJ	.
.	8qddd/	.
*Xrep	*	*
*rep	*	*
16C\LL	16eee-\LL	.
16G\	16ddd\	.
16E-\	16eee-\	.
16G\JJ	16ccc\JJ	.
*Xrep	*	*
=40	=40	=40
!LO:TX:t=P:problem:mixed beam	!	!
8GG/L	16bbn\LL	.
.	16ddd\	.
8G\J 8d 8f	16gg\	.
.	16bb\JJ	.
8r	4bb\	.
8G\ 8d 8f	.	.
4c\ 4e-	8ccc\	.
.	8r	.
=41:|!|:	=41:|!|:	=41:|!|:
*8va	*8va	*
16e-\LL	[4bb-X\	.
16b-\	.	.
16g\	.	.
16b-\JJ	.	.
*rep	*	*
!	!LO:TUP:a:problem:klamra łukowa	!
16e-\LL	12bb-\L]	.
16b-\	.	.
.	12ccc\	.
16g\	.	.
.	12ddd\J	.
16b-\JJ	.	.
*Xrep	*	*
*rep	*	*
!	!LO:TUP:a:problem:klamra łukowa	!
16e-\LL	12eee-X\L	.
16b-\	.	.
.	12gg\	.
16g\	.	.
.	12ccc\J	.
16b-\JJ	.	.
*Xrep	*	*
!!LO:LB:g=original
=42	=42	=42
16f\LL	16bb-\LL	.
16b-\	16aa-X\	.
16a-\	16ccc\	.
16b-\JJ	16bb-\JJ	.
16f\LL	4aa-/	.
16b-\	.	.
16a-\	.	.
16b-\JJ	.	.
16f\LL	4r	.
16b-\	.	.
16a-\	.	.
16b-\JJ	.	.
=43	=43	=43
16d\LL	[4aa-X/	.
16b-\	.	.
16f\	.	.
16b-\JJ	.	.
!	!LO:TUP:a:problem:klamra łukowa	!
16d\LL	12aa-\L]	.
16b-\	.	.
.	12bb-\	.
16f\	.	.
.	12bbn\J	.
16b-\JJ	.	.
!	!LO:TUP:a:problem:klamra łukowa	!
16d\LL	12ccc\L	.
16b-\	.	.
.	12ff\	.
16f\	.	.
.	12bb-X\J	.
16b-\JJ	.	.
=44	=44	=44
16e-\LL	16aa-X\LL	.
16b-\	16gg\	.
16g\	16bb-\	.
16b-\JJ	16aa-\JJ	.
*rep	*	*
16e-\LL	4gg/	.
16b-\	.	.
16g\	.	.
16b-\JJ	.	.
*Xrep	*	*
*rep	*	*
16e-\LL	4r	.
16b-\	.	.
16g\	.	.
16b-\JJ	.	.
*Xrep	*	*
=45	=45	=45
*tremolo	*	*
8d\L 8f 8g 8bn	4gg/	.
8d\ 8f 8g 8b	.	.
!	!LO:TUP:a:problem:klamra łukowa	!
8d\ 8f 8g 8b	12gg\L	.
.	12aan\	.
8d\J 8f 8g 8b	.	.
.	12bbn\J	.
*Xtremolo	*Xtuplet	*
8e-\L 8g 8cc	12ccc\L	.
.	12ddd\	.
8e-\J 8g 8cc	.	.
.	12eee-\J	.
=46	=46	=46
*tremolo	*	*
8f\L 8a-X 8dd	8eee-\L	.
8f\ 8a- 8dd	8ddd\J	.
8f\ 8a- 8dd	8bbb-X\L	.
8f\ 8a- 8dd	8aaa-X\J	.
.	8qaaa-/	.
8f\ 8a- 8dd	16ggg\LL	.
.	16fff\	.
.	8qfff/	.
8f\J 8a- 8dd	16eee-\	.
.	16ddd\JJ	.
=47	=47	=47
8f#X\L 8an 8cc 8ee-X	8ddd\L	.
8f#\ 8a 8cc 8ee-	8ccc\J	.
8f#\ 8a 8cc 8ee-	4.eee-\	.
8f#\ 8a 8cc 8ee-	.	.
8f#\ 8a 8cc 8ee-	.	.
8f#\J 8a 8cc 8ee-	16ddd\LL	.
.	16ccc\JJ	.
*X8va	*	*
=48	=48	=48
4G\ 4Bn 4d	4.bbn\	.
4r	.	.
.	16ff#X/LL	.
.	16gg/JJ	.
*	*X8va	*
!	!LO:TX:b:i:t=Trio Da Capo	!
!	!LO:TX:a:i:t=loco	!
4r	16f#X/LL	.
.	16g/	.
.	16f#/	.
.	16g/JJ	.
==	==	==
*-	*-	*-
!!!RDF**kern: > = above
!!!RDF**kern: < = below
!!!system-decoration: [(s1,s2)]
!!!ENC: Filip Voros
!!!END: 2022-07-27
!!!ENC: Urszula Świątek
!!!END: 2022-08-24
!!!YEC: Copyright 2022 Narodowy Instytut Fryderyka Chopina (https://polishscores.org)
!!!YEM: License CC-BY-4.0 (https://creativecommons.org/licenses/by/4.0)
